X:1
T:Cochinchine  Martine
Z:Roger Ngaret (Mai 2001)
R:
C:Trad.
S:
A:
M:4/4
L:1/8
K:G
D2 GB DG BD | cc BA GA Bc | D2 GB DG BD |
AA GF G4 | d2 dc B4 | c2 cB A4 | D2 GB DG BG | AA GF G4 |]
